X: 37084
T: Silver Strand, The
R: reel
M: 4/4
K: Gmajor
|:G2Bd BGAG|EGDE GABd|e3 e{f} edBd|egdB ~A2ab|
~g3f eged|a2ba gedg|~e3 e dB~B2|1 ABcA BGAB:|2 ABcA BG ((3ABc)||
|:d2 {e}dB ABGD|EA{B}AG EGDB|"= "d2 ""d"4"e "="dGBd|gedB ABcA|
"= "d""G""B""G ABGD|EA{B}AG EGDC|B,DGA BedB|1 ABcA BG ((3ABc):|2 ABcA BGAB||

